packages/2018/src/assets/methods.svg

<?xml version="1.0" encoding="UTF-8"?>
<svg width="100px" height="100px" viewBox="0 0 100 100" version="1.1" xmlns="http://www.w3.org/2000/svg" xmlns:xlink="http://www.w3.org/1999/xlink">
    <!-- Generator: Sketch 57.1 (83088) - https://sketch.com -->
    <title>Transparent Methodology</title>
    <desc>Created with Sketch.</desc>
    <g id="Transparent-Methodology" stroke="none" stroke-width="1" fill="none" fill-rule="evenodd">
        <path d="M38.0967924,32.7195542 C37.3618526,43.9824051 39.3295885,51.1123454 44,54.109375 C45.3121564,54.9513932 46.3832879,55.7252417 47.3366755,56.5761743 C51.4734347,60.2683798 54.2760489,63.3744777 67.7769213,62.2758852 C70.065295,62.0896758 67.8345581,61.2123235 68.3387168,60.6637652 C69.131367,59.8013089 69.1184499,58.7588694 68.7838799,57.0851265 C68.6629879,56.4803441 69.2881309,55.5538656 68.7838799,54.8607704 C67.7783219,53.478627 67.0012334,50.8553104 66.4526142,46.9908207 C65.2524802,45.7121869 64.408802,44.753002 63.9215796,44.1132659 C62.11529,41.7415587 60.96979,39.5175496 59.7820283,38.2094203 C58.1136924,36.3720155 55.930198,34.9611537 53.2315449,33.9768347 C47.8652422,32.8104276 43.8907653,32.1630346 41.3081143,32.0346555 C38.7254632,31.9062765 37.6550226,32.134576 38.0967924,32.7195542 Z" id="Path-12" fill="#19B7AB"></path>
        <path d="M91.5345898,31.6231113 C91.5301719,31.5940859 91.5245352,31.5652109 91.517832,31.5364863 C91.0812148,29.2410742 90.3563633,27.0452207 89.3819727,24.9862227 C89.3551602,24.9077188 89.3193594,24.8319219 89.2747227,24.7597344 C88.3682773,22.8890254 87.2551016,21.1338164 85.964293,19.5234336 C85.916457,19.4441777 85.8596328,19.3689824 85.7904687,19.3007051 C85.7811758,19.2915312 85.7709687,19.2837109 85.7613711,19.2748379 C84.4934141,17.7295742 83.0603164,16.3216172 81.4888906,15.0769844 C81.4800547,15.0676602 81.4721328,15.0578848 81.4629922,15.0487109 C81.392,14.9787793 81.313543,14.9210293 81.2308203,14.8733555 C79.5929727,13.6070664 77.8085703,12.5174863 75.9082344,11.6318359 C75.8358711,11.5880723 75.7596992,11.553332 75.6810898,11.5270137 C73.5833164,10.5720332 71.3469102,9.86474609 69.0098047,9.44575781 C68.980707,9.43929102 68.951457,9.43387695 68.9220547,9.42966602 C67.3206172,9.14738281 65.6725625,9 63.9902305,9 C62.696375,9 61.423543,9.08903125 60.176,9.25731836 C60.1720391,9.25761914 60.1680781,9.25852148 60.1639648,9.25897266 C48.3338633,10.8615352 38.8350781,19.7831582 36.5215859,31.2335996 C33.4850703,31.8308008 30.560832,32.9206816 27.8797344,34.4700059 C27.3340391,34.785375 27.1507695,35.477623 27.470082,36.0163223 C27.7895469,36.5550215 28.4909375,36.7359414 29.0363281,36.4207227 C31.2546055,35.138793 33.6549336,34.1997539 36.1488008,33.6255625 C36.0388086,34.6193438 35.9804609,35.6283145 35.9804609,36.6506699 C35.9804609,38.3099297 36.1296055,39.935502 36.414793,41.5149043 C36.4193633,41.5458848 36.425,41.5767148 36.4321602,41.6072441 C36.8565898,43.9136348 37.5729102,46.1206172 38.5399883,48.1907441 C38.5666484,48.2686465 38.6021445,48.3439922 38.6464766,48.4157285 C39.5437813,50.2915508 40.647207,52.0529258 41.9299414,53.6697754 C41.9783867,53.7514375 42.0367344,53.8288887 42.1077266,53.8989707 C42.1167148,53.9079941 42.1266172,53.9155137 42.1359102,53.9240859 C43.3968594,55.4755156 44.8231016,56.8903906 46.3887383,58.1423926 C46.3977266,58.1518672 46.4056484,58.161793 46.4149414,58.1709668 C46.4839531,58.2390937 46.560125,58.2953398 46.6402578,58.3424121 C48.271707,59.6168223 50.0497109,60.7157266 51.9447148,61.6105508 C52.0178398,61.6547656 52.0947734,61.689957 52.1741445,61.7164258 C54.2601875,62.678625 56.4848633,63.3941836 58.810543,63.8252031 C58.8390313,63.8316699 58.8676719,63.837084 58.8964648,63.8414453 C60.5487852,64.142377 62.2510742,64.3010391 63.9902305,64.3010391 C65.026168,64.3010391 66.0485469,64.2434395 67.0555391,64.134707 C64.3960742,75.3565547 54.1760938,83.7393281 42.0096172,83.7393281 C27.8274805,83.7393281 16.2894219,72.3491934 16.2894219,58.3488789 C16.2894219,51.2892422 19.1543984,44.7313086 24.3564805,39.8828652 C24.8162539,39.4544023 24.8369727,38.7391445 24.4030977,38.2852656 C23.968918,37.8313867 23.2443711,37.8109336 22.78475,38.2392461 C20.0399727,40.7973906 17.8797383,43.8164824 16.364375,47.2127539 C14.7956914,50.7299395 14,54.4766211 14,58.3493301 C14,73.596082 26.5653125,86 42.0099219,86 C55.5767422,86 66.9201055,76.4285391 69.4784141,63.767002 C81.1453555,61.4696348 90.2216914,51.9965293 91.7667617,40.222748 C91.7675234,40.2158301 91.7690469,40.2090625 91.7696563,40.2022949 C91.9213906,39.0391738 92,37.8537949 92,36.6506699 C92,34.9341113 91.8392773,33.2539473 91.5345898,31.6231113 Z M84.986393,22 C85.7371737,23.0302645 86.4119184,24.1183508 87,25.2572906 L67.0686882,45 C66.453515,43.8828546 65.7612581,42.8133009 65,41.7972694 L84.986393,22 Z M83,19.6847167 L62.6965255,40 C61.8591122,39.044897 60.9586498,38.1464951 60,37.3131551 L80.3014994,17 C81.2653147,17.8275634 82.1679041,18.7247492 83,19.6847167 Z M79,15.9987609 L58.3536915,36 C57.2894472,35.2422264 56.1693854,34.5538043 55,33.9429719 L75.5861616,14 C76.7792037,14.5832715 77.9202938,15.2517719 79,15.9987609 Z M68.8731053,12 C70.2950906,12.2866049 71.6742415,12.6911623 73,13.2020408 L52.975164,33 C51.6964631,32.4542279 50.3688947,32.0001633 49,31.6479464 L68.8731053,12 Z M60.5119164,11.1952941 C61.5514751,11.0670753 62.6097769,11 63.6834695,11 C64.4642814,11 65.2365598,11.0368078 66,11.1050999 L46.0678106,31 C44.6433317,30.7764157 43.1838047,30.6591479 41.6973059,30.6591479 C41.4646166,30.6591479 41.2322321,30.6649277 41,30.6707074 L60.5119164,11.1952941 Z M57,12 L40,29 C42.4029545,20.8442108 48.8442882,14.4027848 57,12 Z M38.1044502,39 C38.0365274,38.2436417 38,37.4786798 38,36.7052653 C38,35.6417449 38.0665644,34.5934693 38.1938064,33.5637594 L38.5607406,33.1968252 C39.6005635,33.0679228 40.6504994,33 41.7054162,33 C42.4788307,33 43.2437926,33.0365274 44,33.1042993 L38.1044502,39 Z M39,42.008897 L47.676516,34 C49.1663972,34.2801823 50.6110875,34.6758797 52,35.1757156 L40.2735648,46 C39.7323788,44.7178122 39.3035382,43.3841386 39,42.008897 Z M43.0445645,52 C42.2803616,50.9299934 41.596593,49.7993163 41,48.6173145 L53.6173145,36 C54.7993163,36.5967462 55.9299934,37.2803616 57,38.0445645 L43.0445645,52 Z M44,53.2901005 L58.2899723,39 C59.2579047,39.8307754 60.1643496,40.7311255 61,41.6946419 L46.6947703,56 C45.7311099,55.1644947 44.830768,54.2580416 44,53.2901005 Z M49,56.9444874 L62.9447733,43 C63.7112248,44.0615947 64.3997632,45.1826167 65,46.3561915 L52.3560707,59 C51.1826376,58.3994634 50.0614521,57.7107788 49,56.9444874 Z M58.2690193,61 C56.7977382,60.7146888 55.3708133,60.3169602 54,59.8154954 L65.7168021,49 C66.2598925,50.2653814 66.6907598,51.5825587 67,52.9406807 L58.2690193,61 Z M67.8348422,61.2492293 L67.2493761,61.8346954 C66.3128945,61.9425985 65.3611451,62 64.396183,62 C63.587864,62 62.7887937,61.9597749 62,61.8837289 L67.8837289,56 C67.9597749,56.7886469 68,57.5877172 68,58.396183 C68,59.3611451 67.9427453,60.3127477 67.8348422,61.2492293 Z M69.3672209,51 C69.0088448,49.6358406 68.5502248,48.3130286 68,47.0397125 L87.7806874,27 C88.2968025,28.319794 88.7062687,29.6936112 89,31.1099828 L69.3672209,51 Z M71,61 L89,43 C86.5423733,51.6857736 79.6855393,58.5423944 71,61 Z M89.8289651,39.4531036 L70.3606012,59 C70.3636391,58.8313253 70.3669808,58.6628031 70.3669808,58.4933659 C70.3669808,56.9499771 70.2401476,55.4360226 70,53.9597377 L89.8796983,34 C89.9583805,34.8192771 90,35.6493823 90,36.4892481 C90,37.4916883 89.9404568,38.4804026 89.8289651,39.4531036 Z" id="Shape" fill="#EE495C" fill-rule="nonzero"></path>
        <path d="" id="Path-11" stroke="#979797"></path>
    </g>
</svg>

<?xml version="1.0" encoding="utf-8"?>
<!-- Generator: Adobe Illustrator 23.1.1, SVG Export Plug-In . SVG Version: 6.00 Build 0)  -->
<svg version="1.1" id="Layer_1" xmlns="http://www.w3.org/2000/svg" xmlns:xlink="http://www.w3.org/1999/xlink" x="0px" y="0px"
	 viewBox="0 0 100 100" style="enable-background:new 0 0 100 100;" xml:space="preserve">
<style type="text/css">
	.st0{fill-rule:evenodd;clip-rule:evenodd;fill:#DFDFDF;}
	.st1{fill:#DFDFDF;}
	.st2{fill:#FFB226;}
	.st3{fill:#721D7C;}
	.st4{fill:#19B7AA;}
	.st5{fill:#DC4556;}
	.st6{fill:#1E62BD;}
	.st7{stroke:#000000;stroke-miterlimit:10;}
</style>
<title>Transparent Methodology</title>
<desc>Created with Sketch.</desc>
<g id="Transparent-Methodology">
	<circle class="st0" cx="41.6" cy="58.5" r="27.5"/>
	
		<rect x="60.9" y="57.4" transform="matrix(0.9059 -0.4235 0.4235 0.9059 -19.2799 33.2489)" class="st1" width="8.5" height="5.2"/>
	
		<rect x="38.2" y="41.6" transform="matrix(0.7071 -0.7071 0.7071 0.7071 -16.7609 47.5355)" class="st2" width="21.5" height="4.8"/>
	
		<rect x="36.4" y="36.6" transform="matrix(0.7071 -0.7071 0.7071 0.7071 -14.6066 42.9174)" class="st3" width="16.1" height="5.1"/>
	
		<rect x="52.7" y="52.8" transform="matrix(0.7071 -0.7071 0.7071 0.7071 -21.2734 59.3458)" class="st4" width="16.6" height="5.1"/>
	
		<rect x="41.7" y="45.1" transform="matrix(0.7071 -0.7071 0.7071 0.7071 -18.2107 51.0355)" class="st5" width="21.5" height="4.8"/>
	
		<rect x="46.2" y="49.3" transform="matrix(0.7071 -0.7071 0.7071 0.7071 -19.8527 55.4436)" class="st6" width="21.5" height="4.8"/>
	<path id="Path-11" class="st7" d="M91.5,31.6C91.5,31.6,91.5,31.6,91.5,31.6c-0.5-2.4-1.2-4.6-2.2-6.6c0-0.1-0.1-0.2-0.1-0.2
		c-0.9-1.9-2-3.6-3.3-5.2c0-0.1-0.1-0.2-0.2-0.2c0,0,0,0,0,0c-1.3-1.5-2.7-3-4.3-4.2c0,0,0,0,0,0c-0.1-0.1-0.1-0.1-0.2-0.2
		c-1.6-1.3-3.4-2.4-5.3-3.2c-0.1,0-0.1-0.1-0.2-0.1c-2.1-1-4.3-1.7-6.7-2.1c0,0-0.1,0-0.1,0C67.3,9.1,65.7,9,64,9
		c-1.3,0-2.6,0.1-3.8,0.3c0,0,0,0,0,0c-11.8,1.6-21.3,10.5-23.6,22c-3,0.6-6,1.7-8.6,3.2c-0.5,0.3-0.7,1-0.4,1.5
		c0.3,0.5,1,0.7,1.6,0.4c2.2-1.3,4.6-2.2,7.1-2.8c-0.1,1-0.2,2-0.2,3c0,1.7,0.1,3.3,0.4,4.9c0,0,0,0.1,0,0.1
		c0.4,2.3,1.1,4.5,2.1,6.6c0,0.1,0.1,0.2,0.1,0.2c0.9,1.9,2,3.6,3.3,5.3c0,0.1,0.1,0.2,0.2,0.2c0,0,0,0,0,0c1.3,1.6,2.7,3,4.3,4.2
		c0,0,0,0,0,0c0.1,0.1,0.1,0.1,0.2,0.2c1.6,1.3,3.4,2.4,5.3,3.3c0.1,0,0.2,0.1,0.2,0.1c2.1,1,4.3,1.7,6.6,2.1c0,0,0.1,0,0.1,0
		c1.7,0.3,3.4,0.5,5.1,0.5c1,0,2.1-0.1,3.1-0.2c-2.7,11.2-12.9,19.6-25,19.6c-14.2,0-25.7-11.4-25.7-25.4c0-7.1,2.9-13.6,8.1-18.5
		c0.5-0.4,0.5-1.1,0-1.6c-0.4-0.5-1.2-0.5-1.6,0c-2.7,2.6-4.9,5.6-6.4,9c-1.6,3.5-2.4,7.3-2.4,11.1C14,73.6,26.6,86,42,86
		c13.6,0,24.9-9.6,27.5-22.2C81.1,61.5,90.2,52,91.8,40.2c0,0,0,0,0,0c0.2-1.2,0.2-2.3,0.2-3.6C92,34.9,91.8,33.3,91.5,31.6z M85,22
		c0.8,1,1.4,2.1,2,3.3L67.1,45c-0.6-1.1-1.3-2.2-2.1-3.2L85,22z M83,19.7L62.7,40c-0.8-1-1.7-1.9-2.7-2.7L80.3,17
		C81.3,17.8,82.2,18.7,83,19.7z M79,16L58.4,36c-1.1-0.8-2.2-1.4-3.4-2.1L75.6,14C76.8,14.6,77.9,15.3,79,16z M68.9,12
		c1.4,0.3,2.8,0.7,4.1,1.2L53,33c-1.3-0.5-2.6-1-4-1.4L68.9,12z M60.5,11.2c1-0.1,2.1-0.2,3.2-0.2c0.8,0,1.6,0,2.3,0.1L46.1,31
		c-1.4-0.2-2.9-0.3-4.4-0.3c-0.2,0-0.5,0-0.7,0L60.5,11.2z M57,12L40,29C42.4,20.8,48.8,14.4,57,12z M38.1,39
		C38,38.2,38,37.5,38,36.7c0-1.1,0.1-2.1,0.2-3.1l0.4-0.4c1-0.1,2.1-0.2,3.1-0.2c0.8,0,1.5,0,2.3,0.1L38.1,39z M39,42l8.7-8
		c1.5,0.3,2.9,0.7,4.3,1.2L40.3,46C39.7,44.7,39.3,43.4,39,42z M43,52c-0.8-1.1-1.4-2.2-2-3.4L53.6,36c1.2,0.6,2.3,1.3,3.4,2L43,52z
		 M44,53.3L58.3,39c1,0.8,1.9,1.7,2.7,2.7L46.7,56C45.7,55.2,44.8,54.3,44,53.3z M49,56.9L62.9,43c0.8,1.1,1.5,2.2,2.1,3.4L52.4,59
		C51.2,58.4,50.1,57.7,49,56.9z M58.3,61c-1.5-0.3-2.9-0.7-4.3-1.2L65.7,49c0.5,1.3,1,2.6,1.3,3.9L58.3,61z M67.8,61.2l-0.6,0.6
		c-0.9,0.1-1.9,0.2-2.9,0.2c-0.8,0-1.6,0-2.4-0.1l5.9-5.9c0.1,0.8,0.1,1.6,0.1,2.4C68,59.4,67.9,60.3,67.8,61.2z M69.4,51
		c-0.4-1.4-0.8-2.7-1.4-4l19.8-20c0.5,1.3,0.9,2.7,1.2,4.1L69.4,51z M71,61l18-18C86.5,51.7,79.7,58.5,71,61z M89.8,39.5L70.4,59
		c0-0.2,0-0.3,0-0.5c0-1.5-0.1-3.1-0.4-4.5l19.9-20c0.1,0.8,0.1,1.6,0.1,2.5C90,37.5,89.9,38.5,89.8,39.5z M0,0L0,0z"/>
</g>
</svg>
